X:329
T:Højby Kyrkogårdslåt
C:av Hans Melin
R:Gånglåt
Z:Patrik Månsson, 7/4 2008
O:Kristianstad, Skåne
S:[[!Omtyckta Skånska Allspelslåtar]]
M:2/4
L:1/16
K:G
Q:1/4=60
D2 |: G2GD B,DGB | E3D E2AG | F3/2G/2FE D2dc | B3/2c/2BA BAGD | G2GD B,DGB |
E3D E2AG | F3/2G/2FE FDFA | [1 G6 D2:|[2 G6 Bc |] d3B GBde | [e3c3]B c3/2B/2AG | F3/2G/2FE D2dc|
B3/2c/2BA BAGB | d3B GBde | [e3c3]B c3/2B/2AG | F3/2G/2FE FDFA | [1 G6 Bc | [2 G8|]
(:musicend:)
(:music:)
